X:41
T:Tekeli. JClw.41
M:6/8
L:1/8
Q:3/8=120
S:J.Clews MS,Stoke-upon-Tern,Shrops.1832
N:Music from the Opera “Tekeli” (1806) by J. Hook
A:N. Shropshire
Z:Neil Brookes 2006
K:D
“^Allegro”
A|d2d dcd|B2dA2d|ABc def|g2ec2A|!
d2d dcd|B2dA2d|ABc def|gec d2:|!
|:z|d2ef3|fgf e2d|{f}e2d {f}e2d|!
{f}e2d {f}e2f|d2ef3|fgf e2d|e2de2f|e3d2:|

